X:266
T:Larry
C:Mickey Abraham
N:Transcribed by Michael Abraham
R:bluegrass
L:1/8
Q:1/4=210
M:3/4
K:C
"Mandolin Melody "EG A_B =Bd | 
M:4/4
e2 de e2 e^f | ga (3^fgf e4 | d2 de ^fe d2 | BA Bd B4 | GA AA eA A2 | G^F E2 E2 DF | 
^DB, D^F AB ^de | ^f6 (3fgf | e2 de e2 eg | bd' bg e4 | [ae][a2^f2][af] [af][ae] [a2d2] | 
[_bf][=b^f] [bf][bf] [b2f2] ea | bc' ba e^d e^f | ga (3^fgf e2 A_B | Be B_B AG ED | 
E6 (3E^FE | ""B" section"D2 CD D2 DD | z2 DD AD D2 | [GD][GE] [GE][GE] [GE][G3D3] | 
[GD][G2E2][GE] [G2E2] D^D | Ec2G e2 DF | ^Fd2A ^f2 A_B | Be B_B AG ED | E6 (3E^FE | 
D2 CD D2 DE | ^FA Bd e^f ed | e2 de e2 e^f | ga (3^fgf e2 eg | bc' bg e2 ef | 
^f2 f=f ed ^c=c | B2 B^d BA ^FA | BB A^F AG F=F | E6 EG | A_B =B_B AG ^FE | D2 DE ^FE D_B, | 
B,_B, =B,D B,2 B,_B, | A,C EA cB AG | EG Be g^f ed | A_B =B_B AG ED | E8 | 


